images/arrow.svg

<svg fill="none" height="51" viewBox="0 0 24 51" width="24" xmlns="http://www.w3.org/2000/svg"><path d="m10.9393 50.0607c.5858.5857 1.5356.5857 2.1214 0l9.5459-9.546c.5858-.5858.5858-1.5355 0-2.1213s-1.5355-.5858-2.1213 0l-8.4853 8.4853-8.48528-8.4853c-.58579-.5858-1.53554-.5858-2.12132 0-.58579.5858-.58579 1.5355 0 2.1213zm-.4393-50.06070004v49.00000004h3v-48.99999996z" fill="#e5e5e5"/></svg>

<svg width="24" height="51" viewBox="0 0 24 51" fill="none" xmlns="http://www.w3.org/2000/svg">
<path d="M10.9393 50.0607C11.5251 50.6464 12.4749 50.6464 13.0607 50.0607L22.6066 40.5147C23.1924 39.9289 23.1924 38.9792 22.6066 38.3934C22.0208 37.8076 21.0711 37.8076 20.4853 38.3934L12 46.8787L3.51472 38.3934C2.92893 37.8076 1.97918 37.8076 1.3934 38.3934C0.80761 38.9792 0.80761 39.9289 1.3934 40.5147L10.9393 50.0607ZM10.5 -3.74669e-08L10.5 49L13.5 49L13.5 3.74669e-08L10.5 -3.74669e-08Z" fill="#E5E5E5"/>
</svg>
